assets/Automobile/Flat/automobile_flat.svg

<svg width="32" height="32" viewBox="0 0 32 32" fill="none" xmlns="http://www.w3.org/2000/svg">
<path d="M24.64 10H15.09C15.05 10 15.01 10 14.98 10C13.92 10.04 12.94 10.61 12.35 11.49L12 12L10.5659 14.985L7.98 18H4.88C3.59 18 2.5 18.84 2.13 20L2.39603 21.5L2 23V24L16 25L30 24V19.51C30 19 29.95 18.49 29.86 18L28.5453 15.2111C28.5453 15.2111 27.78 12.1 27.76 12.04C27.22 10.81 26 10 24.64 10Z" fill="#F8312F"/>
<path d="M28.61 26H3.39C2.62 26 2 25.38 2 24.61V24H30V24.61C30 25.38 29.38 26 28.61 26Z" fill="#9B9B9B"/>
<path d="M12 12L7.98999 18H15.03C15.56 18 15.99 17.57 15.99 17.04V12.96C15.99 12.43 15.56 12 15.03 12H12ZM23.01 18H18.97C18.44 18 18.01 17.57 18.01 17.04V12.96C18.01 12.43 18.44 12 18.97 12H23.01C23.54 12 23.97 12.43 23.97 12.96V17.04C23.97 17.57 23.54 18 23.01 18ZM27.83 12.21L29.47 16.58C29.64 17.04 29.77 17.52 29.85 18H26.94C26.41 18 25.98 17.57 25.98 17.04V13.04C25.98 12.47 26.45 12 27.02 12H27.74C27.74 12 27.81 12.15 27.83 12.21Z" fill="#26C9FC"/>
<path d="M3.99 22V21C3.99 20.45 3.54 20 2.99 20H2.14C2.04 20.29 2 20.6 2 21.27V23H2.99C3.54 23 3.99 22.55 3.99 22Z" fill="#E6E6E6"/>
<path d="M12.02 25.5C12.02 27.433 10.453 29 8.52002 29C6.58702 29 5.02002 27.433 5.02002 25.5C5.02002 23.567 6.58702 22 8.52002 22C10.453 22 12.02 23.567 12.02 25.5ZM27 25.5C27 27.433 25.433 29 23.5 29C21.567 29 20 27.433 20 25.5C20 23.567 21.567 22 23.5 22C25.433 22 27 23.567 27 25.5Z" fill="#321B41"/>
<path d="M10 25.5C10 26.3284 9.32843 27 8.5 27C7.67157 27 7 26.3284 7 25.5C7 24.6716 7.67157 24 8.5 24C9.32843 24 10 24.6716 10 25.5ZM25 25.5C25 26.3284 24.3284 27 23.5 27C22.6716 27 22 26.3284 22 25.5C22 24.6716 22.6716 24 23.5 24C24.3284 24 25 24.6716 25 25.5Z" fill="#E6E6E6"/>
<path d="M29.99 20H29.49C28.64 20 27.95 20.71 27.99 21.57C28.03 22.38 28.73 23 29.54 23H29.99V20Z" fill="#CA0B4A"/>
<path d="M11.13 19H11.52C11.79 19 12 18.78 12 18.52V16.48C12 16.21 11.78 16 11.52 16H11.13C10.51 16 10 16.51 10 17.13V17.87C10 18.49 10.51 19 11.13 19Z" fill="#321B41"/>
</svg>

<svg xmlns="http://www.w3.org/2000/svg" width="32" height="32" fill="none"><path fill="#F8312F" d="M24.64 10h-9.66c-1.06.04-2.04.61-2.63 1.49L12 12l-1.434 2.985L7.98 18h-3.1c-1.29 0-2.38.84-2.75 2l.266 1.5L2 23v1l14 1 14-1v-4.49c0-.51-.05-1.02-.14-1.51l-1.315-2.789s-.765-3.111-.785-3.171A3.41 3.41 0 0 0 24.64 10Z"/><path fill="#9B9B9B" d="M28.61 26H3.39C2.62 26 2 25.38 2 24.61V24h28v.61c0 .77-.62 1.39-1.39 1.39Z"/><path fill="#26C9FC" d="m12 12-4.01 6h7.04c.53 0 .96-.43.96-.96v-4.08a.96.96 0 0 0-.96-.96H12Zm11.01 6h-4.04a.96.96 0 0 1-.96-.96v-4.08c0-.53.43-.96.96-.96h4.04c.53 0 .96.43.96.96v4.08c0 .53-.43.96-.96.96Zm4.82-5.79 1.64 4.37c.17.46.3.94.38 1.42h-2.91a.96.96 0 0 1-.96-.96v-4c0-.57.47-1.04 1.04-1.04h.72s.07.15.09.21Z"/><path fill="#E6E6E6" d="M3.99 22v-1c0-.55-.45-1-1-1h-.85c-.1.29-.14.6-.14 1.27V23h.99c.55 0 1-.45 1-1Z"/><path fill="#321B41" d="M12.02 25.5a3.5 3.5 0 1 1-7 0 3.5 3.5 0 0 1 7 0Zm14.98 0a3.5 3.5 0 1 1-7 0 3.5 3.5 0 0 1 7 0Z"/><path fill="#E6E6E6" d="M10 25.5a1.5 1.5 0 1 1-3 0 1.5 1.5 0 0 1 3 0Zm15 0a1.5 1.5 0 1 1-3 0 1.5 1.5 0 0 1 3 0Z"/><path fill="#CA0B4A" d="M29.99 20h-.5c-.85 0-1.54.71-1.5 1.57.04.81.74 1.43 1.55 1.43h.45v-3Z"/><path fill="#321B41" d="M11.13 19h.39c.27 0 .48-.22.48-.48v-2.04a.48.48 0 0 0-.48-.48h-.39c-.62 0-1.13.51-1.13 1.13v.74c0 .62.51 1.13 1.13 1.13Z"/></svg>
